Origami/64x64/apps/makemkv.svg

<svg width="64" height="64" version="1" xmlns="http://www.w3.org/2000/svg">
 <path d="m31.9996 5.0008008c-15.511778 0-27.9996 12.487821-27.9996 27.999599 0 15.511779 12.487822 27.9996 27.9996 27.9996s27.9996-12.487821 27.9996-27.9996c0-15.511778-12.487822-27.999599-27.9996-27.999599zm0 15.999771a11.999828 11.999828 0 0 1 11.999828 11.999828 11.999828 11.999828 0 0 1 -11.999828 11.999829 11.999828 11.999828 0 0 1 -11.999828 -11.999829 11.999828 11.999828 0 0 1 11.999828 -11.999828z" style="opacity:.2"/>
 <path d="m31.9996 17.000644a14.999786 14.999786 0 0 0 -14.999785 14.999785 14.999786 14.999786 0 0 0 14.999785 14.999785 14.999786 14.999786 0 0 0 14.999786 -14.999785 14.999786 14.999786 0 0 0 -14.999786 -14.999785zm0 8.999871c3.313753 0 5.999914 2.686161 5.999914 5.999914s-2.686161 5.999914-5.999914 5.999914-5.999914-2.686161-5.999914-5.999914 2.686161-5.999914 5.999914-5.999914z" style="fill:#848484"/>
 <path d="m31.9996 4.0008294c-15.511778 0-27.9996 12.487822-27.9996 27.9996s12.487822 27.9996 27.9996 27.9996 27.9996-12.487822 27.9996-27.9996-12.487822-27.9996-27.9996-27.9996zm0 15.999772a11.999828 11.999828 0 0 1 11.999828 11.999828 11.999828 11.999828 0 0 1 -11.999828 11.999828 11.999828 11.999828 0 0 1 -11.999828 -11.999828 11.999828 11.999828 0 0 1 11.999828 -11.999828z" style="fill:#cccccc"/>
 <path d="M 32 4 C 16.488222 4 4 16.488222 4 32 C 4 32.113554 4.0112846 32.224034 4.0175781 32.335938 C 4.3691163 17.134398 16.710946 5 32 5 C 47.289054 5 59.630884 17.134398 59.982422 32.335938 C 59.988797 32.224034 60 32.113554 60 32 C 60 16.488222 47.511778 4 32 4 z M 20.048828 32.996094 A 11.999828 11.999828 0 0 0 20 34 A 11.999828 11.999828 0 0 0 20.025391 34.490234 A 11.999828 11.999828 0 0 1 20.048828 33.996094 A 11.999828 11.999828 0 0 0 32 45 A 11.999828 11.999828 0 0 0 43.949219 34.003906 A 11.999828 11.999828 0 0 1 43.978516 34.580078 A 11.999828 11.999828 0 0 0 44 34 A 11.999828 11.999828 0 0 0 43.949219 33.003906 A 11.999828 11.999828 0 0 1 32 44 A 11.999828 11.999828 0 0 1 20.048828 32.996094 z" style="fill:#ffffff;opacity:.2"/>
 <rect x="12" y="41" width="39.999" height="20" rx="2.857" ry="2.857" style="opacity:.2"/>
 <rect x="12" y="40" width="39.999" height="20" rx="2.857" ry="2.857" style="fill:#64cd4a"/>
 <path d="m24.990866 55.985876v-9.971382m-7.982218 0 3.991107 4.985687 3.991111-4.985687m-7.982218 9.971382v-9.971382" style="fill:none;opacity:.2;stroke-linecap:round;stroke-linejoin:round;stroke-width:1.9997646;stroke:#000000"/>
 <path d="m24.990866 54.985962v-9.971381m-7.982218 0 3.991107 4.985687 3.991111-4.985687m-7.982218 9.971381v-9.971381" style="fill:none;stroke-linecap:round;stroke-linejoin:round;stroke-width:1.9997646;stroke:#ffffff"/>
 <path d="m36.989975 55.986114-5.980809-6.232535m5.980809-3.739523-5.980809 6.232535m0 3.739523v-9.972058" style="fill:none;opacity:.2;stroke-linecap:round;stroke-width:1.999298;stroke:#000000"/>
 <path d="m36.989975 54.9862-5.980809-6.232535m5.980809-3.739522-5.980809 6.232535m0 3.739522v-9.972057" style="fill:none;stroke-linecap:round;stroke-width:1.999298;stroke:#ffffff"/>
 <path d="m46.99562 46.013396-2.996196 9.987265-2.996191-9.987265" style="fill:none;opacity:.2;stroke-linecap:round;stroke-linejoin:round;stroke-width:1.99917;stroke:#000000"/>
 <path d="m46.99562 45.013483-2.996196 9.987265-2.996191-9.987265" style="fill:none;stroke-linecap:round;stroke-linejoin:round;stroke-width:1.99917;stroke:#ffffff"/>
</svg>

<svg xmlns="http://www.w3.org/2000/svg" width="64" height="64" version="1">
 <path style="opacity:0.2" d="M 31.9996,5.0008008 C 16.487822,5.0008008 4.0000004,17.488622 4.0000004,33.0004 4.0000004,48.512179 16.487822,61 31.9996,61 47.511378,61 59.9992,48.512179 59.9992,33.0004 59.9992,17.488622 47.511378,5.0008008 31.9996,5.0008008 Z m 0,15.9997712 A 11.999828,11.999828 0 0 1 43.999428,33.0004 11.999828,11.999828 0 0 1 31.9996,45.000229 11.999828,11.999828 0 0 1 19.999772,33.0004 11.999828,11.999828 0 0 1 31.9996,21.000572 Z"/>
 <path style="fill:#848484" d="M 31.9996,17.000644 A 14.999786,14.999786 0 0 0 16.999815,32.000429 14.999786,14.999786 0 0 0 31.9996,47.000214 14.999786,14.999786 0 0 0 46.999386,32.000429 14.999786,14.999786 0 0 0 31.9996,17.000644 Z m 0,8.999871 c 3.313753,0 5.999914,2.686161 5.999914,5.999914 0,3.313753 -2.686161,5.999914 -5.999914,5.999914 -3.313753,0 -5.999914,-2.686161 -5.999914,-5.999914 0,-3.313753 2.686161,-5.999914 5.999914,-5.999914 z"/>
 <path style="fill:#cccccc" d="m 31.9996,4.0008294 c -15.511778,0 -27.9995996,12.4878216 -27.9995996,27.9995996 0,15.511778 12.4878216,27.9996 27.9995996,27.9996 15.511778,0 27.9996,-12.487822 27.9996,-27.9996 0,-15.511778 -12.487822,-27.9995996 -27.9996,-27.9995996 z m 0,15.9997716 A 11.999828,11.999828 0 0 1 43.999428,32.000429 11.999828,11.999828 0 0 1 31.9996,44.000257 11.999828,11.999828 0 0 1 19.999772,32.000429 11.999828,11.999828 0 0 1 31.9996,20.000601 Z"/>
 <path style="opacity:0.2;fill:#ffffff" d="M 32 4 C 16.488222 4 4 16.488222 4 32 C 4 32.113554 4.0112846 32.224034 4.0175781 32.335938 C 4.3691163 17.134398 16.710946 5 32 5 C 47.289054 5 59.630884 17.134398 59.982422 32.335938 C 59.988797 32.224034 60 32.113554 60 32 C 60 16.488222 47.511778 4 32 4 z M 20.048828 32.996094 A 11.999828 11.999828 0 0 0 20 34 A 11.999828 11.999828 0 0 0 20.025391 34.490234 A 11.999828 11.999828 0 0 1 20.048828 33.996094 A 11.999828 11.999828 0 0 0 32 45 A 11.999828 11.999828 0 0 0 43.949219 34.003906 A 11.999828 11.999828 0 0 1 43.978516 34.580078 A 11.999828 11.999828 0 0 0 44 34 A 11.999828 11.999828 0 0 0 43.949219 33.003906 A 11.999828 11.999828 0 0 1 32 44 A 11.999828 11.999828 0 0 1 20.048828 32.996094 z"/>
 <rect style="opacity:0.2" width="39.999" height="20" x="12" y="41" rx="2.857" ry="2.857"/>
 <rect style="fill:#64cd4a" width="39.999" height="20" x="12" y="40" rx="2.857" ry="2.857"/>
 <path style="opacity:0.2;fill:none;stroke:#000000;stroke-width:1.99976456;stroke-linecap:round;stroke-linejoin:round" d="m 24.990866,55.985876 0,-9.971382 m -7.982218,0 3.991107,4.985687 3.991111,-4.985687 m -7.982218,9.971382 0,-9.971382"/>
 <path style="fill:none;stroke:#ffffff;stroke-width:1.99976456;stroke-linecap:round;stroke-linejoin:round" d="m 24.990866,54.985962 0,-9.971381 m -7.982218,0 3.991107,4.985687 3.991111,-4.985687 m -7.982218,9.971381 0,-9.971381"/>
 <path style="opacity:0.2;fill:none;stroke:#000000;stroke-width:1.99929798;stroke-linecap:round" d="m 36.989975,55.986114 -5.980809,-6.232535 m 5.980809,-3.739523 -5.980809,6.232535 m 0,3.739523 0,-9.972058"/>
 <path style="fill:none;stroke:#ffffff;stroke-width:1.99929798;stroke-linecap:round" d="m 36.989975,54.9862 -5.980809,-6.232535 m 5.980809,-3.739522 -5.980809,6.232535 m 0,3.739522 0,-9.972057"/>
 <path style="opacity:0.2;fill:none;stroke:#000000;stroke-width:1.99916995;stroke-linecap:round;stroke-linejoin:round" d="m 46.99562,46.013396 -2.996196,9.987265 -2.996191,-9.987265"/>
 <path style="fill:none;stroke:#ffffff;stroke-width:1.99916995;stroke-linecap:round;stroke-linejoin:round" d="m 46.99562,45.013483 -2.996196,9.987265 -2.996191,-9.987265"/>
</svg>
